.gitbook/assets/github-logo (5).svg

<svg
    width="339px"
    height="30px"
    viewBox="0 0 15 15"
    fill="none"
    xmlns="http://www.w3.org/2000/svg"
  >
    <path
      fillRule="evenodd"
      clipRule="evenodd"
      d="M7.5 0C3.35625 0 0 3.44114 0 7.6897C0 11.0924 2.14687 13.9664 5.12812 14.9853C5.50312 15.0526 5.64375 14.8219 5.64375 14.62C5.64375 14.4374 5.63438 13.8319 5.63438 13.1878C3.75 13.5435 3.2625 12.7168 3.1125 12.2843C3.02812 12.0632 2.6625 11.3808 2.34375 11.1981C2.08125 11.0539 1.70625 10.6983 2.33438 10.6887C2.925 10.6791 3.34688 11.2462 3.4875 11.4769C4.1625 12.6399 5.24063 12.3131 5.67188 12.1113C5.7375 11.6115 5.93437 11.275 6.15 11.0828C4.48125 10.8905 2.7375 10.2273 2.7375 7.28599C2.7375 6.44974 3.02813 5.75767 3.50625 5.21939C3.43125 5.02714 3.16875 4.23895 3.58125 3.18161C3.58125 3.18161 4.20938 2.97976 5.64375 3.96981C6.24375 3.79679 6.88125 3.71028 7.51875 3.71028C8.15625 3.71028 8.79375 3.79679 9.39375 3.96981C10.8281 2.97015 11.4563 3.18161 11.4563 3.18161C11.8688 4.23895 11.6063 5.02714 11.5313 5.21939C12.0094 5.75767 12.3 6.44013 12.3 7.28599C12.3 10.2369 10.5469 10.8905 8.87813 11.0828C9.15 11.3231 9.38438 11.7845 9.38438 12.5054C9.38438 13.5339 9.375 14.3605 9.375 14.62C9.375 14.8219 9.51563 15.0622 9.89063 14.9853C12.8531 13.9664 15 11.0828 15 7.6897C15 3.44114 11.6438 0 7.5 0Z"
      fill="black"
    />
  </svg>

<svg xmlns="http://www.w3.org/2000/svg" width="339" height="30" fill="none" viewBox="0 0 15 15"><path fill="#000" d="M7.5 0C3.356 0 0 3.441 0 7.69c0 3.402 2.147 6.276 5.128 7.295.375.068.516-.163.516-.365 0-.183-.01-.788-.01-1.432-1.884.355-2.371-.471-2.522-.904-.084-.22-.45-.903-.768-1.086-.263-.144-.638-.5-.01-.51.591-.009 1.013.558 1.153.789.675 1.163 1.754.836 2.185.634.066-.5.262-.836.478-1.028-1.669-.193-3.413-.856-3.413-3.797 0-.836.291-1.528.77-2.067-.076-.192-.338-.98.074-2.037 0 0 .628-.202 2.063.788.6-.173 1.237-.26 1.875-.26s1.275.087 1.875.26c1.434-1 2.062-.788 2.062-.788.413 1.057.15 1.845.075 2.037.478.539.769 1.221.769 2.067 0 2.95-1.753 3.605-3.422 3.797.272.24.506.701.506 1.422 0 1.029-.009 1.855-.009 2.115 0 .202.14.442.516.365C12.853 13.966 15 11.083 15 7.69 15 3.44 11.644 0 7.5 0"/></svg>
